src/_includes/svg/icons/tasks.svg

<svg xmlns="http://www.w3.org/2000/svg" width="24" height="24" fill="none" viewBox="0 0 24 24" aria-hidden="true" focusable="false">
  <path stroke="currentColor" stroke-linecap="round" stroke-linejoin="round" stroke-miterlimit="1.2" stroke-width="1.5" d="M12 16H15.5M12 12H15.5"/>
  <path stroke="currentColor" stroke-linecap="round" stroke-width="1.5" d="M9 12H9M9 16H9"/>
  <path stroke="currentColor" stroke-linecap="round" stroke-linejoin="round" stroke-miterlimit="1.2" stroke-width="1.5" d="M13 8H15.5M8 8 9 9 10.5 7"/>
  <path stroke="currentColor" stroke-width="1.5" d="M5 20.5V3.5C5 3.22386 5.22386 3 5.5 3H18.5C18.7761 3 19 3.22386 19 3.5V20.5C19 20.7761 18.7761 21 18.5 21H5.5C5.22386 21 5 20.7761 5 20.5Z"/>
</svg>

<svg xmlns="http://www.w3.org/2000/svg" width="24" height="24" fill="none" stroke="currentColor" viewBox="0 0 24 24" aria-hidden="true" focusable="false">
  <path stroke-linecap="round" stroke-linejoin="round" stroke-miterlimit="1.24" stroke-width="1.5" d="M12 16h3.5M12 12h3.5"/>
  <path stroke-linecap="round" stroke-width="1.5" d="M9.01 12H9m.01 4H9"/>
  <path stroke-linecap="round" stroke-linejoin="round" stroke-miterlimit="1.24" stroke-width="1.5" d="M13 8h2.5M8 8l1 1 1.5-2"/>
  <path stroke-width="1.5" d="M5 20.5v-17c0-.28.22-.5.5-.5h13c.28 0 .5.22.5.5v17a.5.5 0 0 1-.5.5h-13a.5.5 0 0 1-.5-.5Z"/>
</svg>
